X: 1
T: Le 24 Juin
C: Philippe Bruneau
O: Qu\'ebec
R: reel
Z: 2010 John Chambers <jc:trillian.mit.edu>
M: C|
L: 1/8
K: Gm
D2 \
|:\
"Gm"G2GA B2Bc | d2de dcBA | G^FGA BABc | d^cde "G7"d3d | "Cm"dcc=B c3c |
"Gm"cBBA B4 |[1 "D7"A2{BA} ^GA BAGA | dDcD BDAD :|[2 "D7"A2{BA} ^GA dcBA |\
"G"G=B"D7"A^F "G"G2 ||%[K:G=B=e^f]
K: G
"D7"A2 | "G"B2BB "D7"ABcA | "G"GABG "D7"E2{GE}DB, | "G"G,B,DG "E7"B3B | "Am"ABcA E2AB |
"C"c2ec "G"BcdB | "Am"ABcA "D7"BAFE | DEFG ABcd | "(C)"efge "D7"dcBA |]
 "G"B2BB "D7"ABcA | "G"GABG "D7"E2{GE}DB, | "G"G,B,DG "E7"B3B | "Am"ABcA E2AB |
"C"c2ec "G"BcdB | "Am"ABcA "D7"F3f | fedc BAFA | "G"GB"D7"AF "G"G2 |]

%%sep 1 1 500

